P3
32 32
255
17 18 17 17 18 17 17 18 17 17 18 17 17 18 17 17 18 17 17 18 17 17 18 17 17 18 17 17 18 17 17 18 17 17 18 17 17 18 17 17 18 17 17 18 17 17 18 17 17 18 17 17 18 17 17 18 17 17 18 17 17 18 17 17 18 17 17 18 17 17 18 17 17 18 17 17 18 17 17 18 17 17 18 17 17 18 17 17 18 17 17 18 17 17 18 17
17 18 17 17 18 17 17 18 17 17 18 17 17 18 17 17 18 17 17 18 17 17 18 17 17 18 17 17 18 17 17 18 17 17 18 17 17 18 17 17 18 17 17 18 17 17 18 17 17 18 17 17 18 17 17 18 17 17 18 17 17 18 17 17 18 17 17 18 17 17 18 17 17 18 17 17 18 17 17 18 17 17 18 17 17 18 17 17 18 17 17 18 17 17 18 17
17 18 17 17 18 17 17 18 17 17 18 17 17 18 17 17 18 17 17 18 17 17 18 17 17 18 17 17 18 17 17 18 17 17 18 17 242 231 211 242 231 211 242 231 211 242 231 211 242 231 211 242 231 211 242 231 211 242 231 211 17 18 17 17 18 17 17 18 17 17 18 17 17 18 17 17 18 17 17 18 17 17 18 17 17 18 17 17 18 17 17 18 17 17 18 17
17 18 17 17 18 17 17 18 17 17 18 17 17 18 17 17 18 17 17 18 17 17 18 17 17 18 17 17 18 17 242 231 211 242 231 211 242 231 211 242 231 211 242 231 211 242 231 211 242 231 211 242 231 211 242 231 211 242 231 211 242 231 211 242 231 211 17 18 17 17 18 17 17 18 17 17 18 17 17 18 17 17 18 17 17 18 17 17 18 17 17 18 17 17 18 17
17 18 17 17 18 17 17 18 17 17 18 17 17 18 17 17 18 17 17 18 17 17 18 17 242 231 211 242 231 211 242 231 211 242 231 211 242 231 211 242 231 211 242 231 211 242 231 211 242 231 211 242 231 211 242 231 211 242 231 211 242 231 211 242 231 211 242 231 211 242 231 211 17 18 17 17 18 17 17 18 17 17 18 17 17 18 17 17 18 17 17 18 17 17 18 17
17 18 17 17 18 17 17 18 17 17 18 17 17 18 17 17 18 17 17 18 17 242 231 211 242 231 211 242 231 211 242 231 211 242 231 211 242 231 211 242 231 211 242 231 211 242 231 211 242 231 211 242 231 211 242 231 211 242 231 211 242 231 211 242 231 211 242 231 211 242 231 211 242 231 211 17 18 17 17 18 17 17 18 17 17 18 17 17 18 17 17 18 17 17 18 17
17 18 17 17 18 17 17 18 17 17 18 17 17 18 17 17 18 17 242 231 211 242 231 211 242 231 211 242 231 211 242 231 211 242 231 211 242 231 211 242 231 211 242 231 211 242 231 211 242 231 211 242 231 211 242 231 211 242 231 211 242 231 211 242 231 211 242 231 211 242 231 211 242 231 211 242 231 211 17 18 17 17 18 17 17 18 17 17 18 17 17 18 17 17 18 17
17 18 17 17 18 17 17 18 17 17 18 17 17 18 17 242 231 211 242 231 211 242 231 211 242 231 211 242 231 211 242 231 211 242 231 211 242 231 211 242 231 211 242 231 211 242 231 211 242 231 211 242 231 211 242 231 211 242 231 211 242 231 211 242 231 211 242 231 211 242 231 211 242 231 211 242 231 211 242 231 211 17 18 17 17 18 17 17 18 17 17 18 17 17 18 17
17 18 17 17 18 17 17 18 17 17 18 17 242 231 211 242 231 211 242 231 211 242 231 211 242 231 211 242 231 211 242 231 211 242 231 211 242 231 211 242 231 211 242 231 211 242 231 211 242 231 211 242 231 211 242 231 211 242 231 211 242 231 211 242 231 211 242 231 211 242 231 211 242 231 211 242 231 211 242 231 211 242 231 211 17 18 17 17 18 17 17 18 17 17 18 17
17 18 17 17 18 17 17 18 17 17 18 17 242 231 211 242 231 211 242 231 211 242 231 211 242 231 211 242 231 211 242 231 211 242 231 211 242 231 211 242 231 211 17 18 17 17 18 17 17 18 17 17 18 17 242 231 211 242 231 211 242 231 211 242 231 211 242 231 211 242 231 211 242 231 211 242 231 211 242 231 211 242 231 211 17 18 17 17 18 17 17 18 17 17 18 17
17 18 17 17 18 17 17 18 17 242 231 211 242 231 211 242 231 211 242 231 211 242 231 211 242 231 211 242 231 211 242 231 211 242 231 211 242 231 211 242 231 211 17 18 17 17 18 17 17 18 17 17 18 17 242 231 211 242 231 211 242 231 211 242 231 211 242 231 211 242 231 211 242 231 211 242 231 211 242 231 211 242 231 211 242 231 211 17 18 17 17 18 17 17 18 17
17 18 17 17 18 17 17 18 17 242 231 211 242 231 211 242 231 211 242 231 211 242 231 211 242 231 211 242 231 211 242 231 211 242 231 211 242 231 211 242 231 211 17 18 17 17 18 17 17 18 17 17 18 17 242 231 211 242 231 211 242 231 211 242 231 211 242 231 211 242 231 211 242 231 211 242 231 211 242 231 211 242 231 211 242 231 211 17 18 17 17 18 17 17 18 17
17 18 17 17 18 17 242 231 211 242 231 211 242 231 211 242 231 211 242 231 211 242 231 211 242 231 211 242 231 211 242 231 211 242 231 211 242 231 211 242 231 211 17 18 17 17 18 17 17 18 17 17 18 17 242 231 211 242 231 211 242 231 211 242 231 211 242 231 211 242 231 211 242 231 211 242 231 211 242 231 211 242 231 211 242 231 211 242 231 211 17 18 17 17 18 17
17 18 17 17 18 17 242 231 211 242 231 211 242 231 211 242 231 211 242 231 211 242 231 211 242 231 211 242 231 211 242 231 211 242 231 211 242 231 211 242 231 211 17 18 17 17 18 17 17 18 17 17 18 17 242 231 211 242 231 211 242 231 211 242 231 211 242 231 211 242 231 211 242 231 211 242 231 211 242 231 211 242 231 211 242 231 211 242 231 211 17 18 17 17 18 17
17 18 17 17 18 17 242 231 211 242 231 211 242 231 211 242 231 211 242 231 211 242 231 211 242 231 211 242 231 211 242 231 211 242 231 211 242 231 211 242 231 211 17 18 17 17 18 17 17 18 17 17 18 17 242 231 211 242 231 211 242 231 211 242 231 211 242 231 211 242 231 211 242 231 211 242 231 211 242 231 211 242 231 211 242 231 211 242 231 211 17 18 17 17 18 17
17 18 17 17 18 17 242 231 211 242 231 211 242 231 211 242 231 211 242 231 211 242 231 211 242 231 211 242 231 211 242 231 211 242 231 211 242 231 211 242 231 211 17 18 17 17 18 17 17 18 17 17 18 17 242 231 211 242 231 211 242 231 211 242 231 211 242 231 211 242 231 211 242 231 211 242 231 211 242 231 211 242 231 211 242 231 211 242 231 211 17 18 17 17 18 17
17 18 17 17 18 17 242 231 211 242 231 211 242 231 211 242 231 211 242 231 211 242 231 211 242 231 211 242 231 211 242 231 211 242 231 211 242 231 211 242 231 211 17 18 17 17 18 17 17 18 17 17 18 17 242 231 211 242 231 211 242 231 211 242 231 211 242 231 211 242 231 211 242 231 211 242 231 211 242 231 211 242 231 211 242 231 211 242 231 211 17 18 17 17 18 17
17 18 17 17 18 17 242 231 211 242 231 211 242 231 211 242 231 211 242 231 211 242 231 211 242 231 211 242 231 211 242 231 211 242 231 211 242 231 211 242 231 211 17 18 17 17 18 17 17 18 17 17 18 17 242 231 211 242 231 211 242 231 211 242 231 211 242 231 211 242 231 211 242 231 211 242 231 211 242 231 211 242 231 211 242 231 211 242 231 211 17 18 17 17 18 17
17 18 17 17 18 17 242 231 211 242 231 211 242 231 211 242 231 211 242 231 211 242 231 211 242 231 211 242 231 211 242 231 211 242 231 211 242 231 211 242 231 211 17 18 17 17 18 17 17 18 17 17 18 17 242 231 211 242 231 211 242 231 211 242 231 211 242 231 211 242 231 211 242 231 211 242 231 211 242 231 211 242 231 211 242 231 211 242 231 211 17 18 17 17 18 17
17 18 17 17 18 17 242 231 211 242 231 211 242 231 211 242 231 211 242 231 211 242 231 211 242 231 211 242 231 211 242 231 211 242 231 211 242 231 211 242 231 211 17 18 17 17 18 17 17 18 17 17 18 17 242 231 211 242 231 211 242 231 211 242 231 211 242 231 211 242 231 211 242 231 211 242 231 211 242 231 211 242 231 211 242 231 211 242 231 211 17 18 17 17 18 17
17 18 17 17 18 17 17 18 17 242 231 211 242 231 211 242 231 211 242 231 211 242 231 211 242 231 211 242 231 211 242 231 211 242 231 211 242 231 211 242 231 211 17 18 17 17 18 17 17 18 17 17 18 17 242 231 211 242 231 211 242 231 211 242 231 211 242 231 211 242 231 211 242 231 211 242 231 211 242 231 211 242 231 211 242 231 211 17 18 17 17 18 17 17 18 17
17 18 17 17 18 17 17 18 17 242 231 211 242 231 211 242 231 211 242 231 211 242 231 211 242 231 211 242 231 211 242 231 211 242 231 211 242 231 211 242 231 211 17 18 17 17 18 17 17 18 17 17 18 17 242 231 211 242 231 211 242 231 211 242 231 211 242 231 211 242 231 211 242 231 211 242 231 211 242 231 211 242 231 211 242 231 211 17 18 17 17 18 17 17 18 17
17 18 17 17 18 17 17 18 17 17 18 17 242 231 211 242 231 211 242 231 211 242 231 211 242 231 211 242 231 211 242 231 211 242 231 211 242 231 211 242 231 211 17 18 17 17 18 17 17 18 17 17 18 17 242 231 211 242 231 211 242 231 211 242 231 211 242 231 211 242 231 211 242 231 211 242 231 211 242 231 211 242 231 211 17 18 17 17 18 17 17 18 17 17 18 17
17 18 17 17 18 17 17 18 17 17 18 17 242 231 211 242 231 211 242 231 211 242 231 211 242 231 211 242 231 211 242 231 211 242 231 211 242 231 211 242 231 211 242 231 211 242 231 211 242 231 211 242 231 211 242 231 211 242 231 211 242 231 211 242 231 211 242 231 211 242 231 211 242 231 211 242 231 211 242 231 211 242 231 211 17 18 17 17 18 17 17 18 17 17 18 17
17 18 17 17 18 17 17 18 17 17 18 17 17 18 17 242 231 211 242 231 211 242 231 211 242 231 211 242 231 211 242 231 211 242 231 211 242 231 211 242 231 211 242 231 211 242 231 211 242 231 211 242 231 211 242 231 211 242 231 211 242 231 211 242 231 211 242 231 211 242 231 211 242 231 211 242 231 211 242 231 211 17 18 17 17 18 17 17 18 17 17 18 17 17 18 17
17 18 17 17 18 17 17 18 17 17 18 17 17 18 17 17 18 17 242 231 211 242 231 211 242 231 211 242 231 211 242 231 211 242 231 211 242 231 211 242 231 211 242 231 211 242 231 211 242 231 211 242 231 211 242 231 211 242 231 211 242 231 211 242 231 211 242 231 211 242 231 211 242 231 211 242 231 211 17 18 17 17 18 17 17 18 17 17 18 17 17 18 17 17 18 17
17 18 17 17 18 17 17 18 17 17 18 17 17 18 17 17 18 17 17 18 17 242 231 211 242 231 211 242 231 211 242 231 211 242 231 211 242 231 211 242 231 211 242 231 211 242 231 211 242 231 211 242 231 211 242 231 211 242 231 211 242 231 211 242 231 211 242 231 211 242 231 211 242 231 211 17 18 17 17 18 17 17 18 17 17 18 17 17 18 17 17 18 17 17 18 17
17 18 17 17 18 17 17 18 17 17 18 17 17 18 17 17 18 17 17 18 17 17 18 17 242 231 211 242 231 211 242 231 211 242 231 211 242 231 211 242 231 211 242 231 211 242 231 211 242 231 211 242 231 211 242 231 211 242 231 211 242 231 211 242 231 211 242 231 211 242 231 211 17 18 17 17 18 17 17 18 17 17 18 17 17 18 17 17 18 17 17 18 17 17 18 17
17 18 17 17 18 17 17 18 17 17 18 17 17 18 17 17 18 17 17 18 17 17 18 17 17 18 17 17 18 17 242 231 211 242 231 211 242 231 211 242 231 211 242 231 211 242 231 211 242 231 211 242 231 211 242 231 211 242 231 211 242 231 211 242 231 211 17 18 17 17 18 17 17 18 17 17 18 17 17 18 17 17 18 17 17 18 17 17 18 17 17 18 17 17 18 17
17 18 17 17 18 17 17 18 17 17 18 17 17 18 17 17 18 17 17 18 17 17 18 17 17 18 17 17 18 17 17 18 17 17 18 17 242 231 211 242 231 211 242 231 211 242 231 211 242 231 211 242 231 211 242 231 211 242 231 211 17 18 17 17 18 17 17 18 17 17 18 17 17 18 17 17 18 17 17 18 17 17 18 17 17 18 17 17 18 17 17 18 17 17 18 17
17 18 17 17 18 17 17 18 17 17 18 17 17 18 17 17 18 17 17 18 17 17 18 17 17 18 17 17 18 17 17 18 17 17 18 17 17 18 17 17 18 17 17 18 17 17 18 17 17 18 17 17 18 17 17 18 17 17 18 17 17 18 17 17 18 17 17 18 17 17 18 17 17 18 17 17 18 17 17 18 17 17 18 17 17 18 17 17 18 17 17 18 17 17 18 17
17 18 17 17 18 17 17 18 17 17 18 17 17 18 17 17 18 17 17 18 17 17 18 17 17 18 17 17 18 17 17 18 17 17 18 17 17 18 17 17 18 17 17 18 17 17 18 17 17 18 17 17 18 17 17 18 17 17 18 17 17 18 17 17 18 17 17 18 17 17 18 17 17 18 17 17 18 17 17 18 17 17 18 17 17 18 17 17 18 17 17 18 17 17 18 17
